assets/googlecalendar/mono.svg

<svg viewBox="0 0 24 24" xmlns="http://www.w3.org/2000/svg"><path d="m18.316 5.684h5.684v12.632h-5.684zm-12.632 18.316h12.632v-5.684h-12.632zm12.632-18.316v-5.684h-16.421a1.894 1.894 0 0 0 -1.895 1.895v16.421h5.684v-12.632zm-7.207 6.25v-.065c.272-.144.5-.349.687-.617s.279-.595.279-.982c0-.379-.099-.72-.3-1.025a2.05 2.05 0 0 0 -.832-.714 2.703 2.703 0 0 0 -1.197-.257c-.6 0-1.094.156-1.481.467-.386.311-.65.671-.793 1.078l1.085.452c.086-.249.224-.461.413-.633s.445-.257.767-.257c.33 0 .602.088.816.264a.86.86 0 0 1 .322.703c0 .33-.12.589-.36.778-.24.19-.535.284-.886.284h-.567v1.085h.633c.407 0 .748.109 1.02.327s.407.499.407.843c0 .336-.129.614-.387.832s-.565.327-.924.327c-.351 0-.651-.103-.897-.311-.248-.208-.422-.502-.521-.881l-1.096.452c.178.616.505 1.082.977 1.401s.984.478 1.538.477a2.84 2.84 0 0 0 1.293-.291c.382-.193.684-.458.902-.794s.327-.72.327-1.149-.115-.797-.344-1.105a2.067 2.067 0 0 0 -.881-.689zm2.093-1.931.602.913 1.196-.871v5.744h1.187v-7.343h-.827zm8.903-10.003h-3.289v5.184h5.184v-3.289a1.894 1.894 0 0 0 -1.895-1.895zm-3.289 23.5 4.684-4.684h-4.684zm-18.816-1.395c0 1.047.848 1.895 1.895 1.895h3.289v-5.184h-5.184z"/></svg>

<svg xmlns="http://www.w3.org/2000/svg" viewBox="0 0 24 24"><path d="M18.316 5.684H24v12.632h-5.684zM5.684 24h12.632v-5.684H5.684zM18.316 5.684V0H1.895A1.894 1.894 0 0 0 0 1.895v16.421h5.684V5.684zm-7.207 6.25v-.065q.407-.216.687-.617c.28-.401.279-.595.279-.982q0-.568-.3-1.025a2.05 2.05 0 0 0-.832-.714 2.7 2.7 0 0 0-1.197-.257q-.9 0-1.481.467-.579.467-.793 1.078l1.085.452q.13-.374.413-.633c.283-.259.445-.257.767-.257q.495 0 .816.264a.86.86 0 0 1 .322.703q0 .495-.36.778t-.886.284h-.567v1.085h.633q.611 0 1.02.327c.409.327.407.499.407.843q0 .505-.387.832c-.387.327-.565.327-.924.327q-.527 0-.897-.311-.372-.312-.521-.881l-1.096.452q.268.923.977 1.401c.709.478.984.478 1.538.477a2.84 2.84 0 0 0 1.293-.291q.574-.29.902-.794c.328-.504.327-.72.327-1.149s-.115-.797-.344-1.105a2.07 2.07 0 0 0-.881-.689m2.093-1.931.602.913L15 10.045v5.744h1.187V8.446h-.827zM22.105 0h-3.289v5.184H24V1.895A1.894 1.894 0 0 0 22.105 0m-3.289 23.5 4.684-4.684h-4.684zM0 22.105C0 23.152.848 24 1.895 24h3.289v-5.184H0z"/></svg>
